public/assets/images/others/star.svg

<svg width="91" height="17" viewBox="0 0 91 17" fill="none" xmlns="http://www.w3.org/2000/svg">
<g clip-path="url(#clip0_76_7278)">
<path d="M17.0625 0H0V17H17.0625V0Z" fill="#0F62FE"/>
<path d="M35.5469 0H18.4844V17H35.5469V0Z" fill="#0F62FE"/>
<path d="M54.0312 0H36.9688V17H54.0312V0Z" fill="#0F62FE"/>
<path d="M72.5156 0H55.4531V17H72.5156V0Z" fill="#0F62FE"/>
<path d="M91 0H82.4688V17H91V0Z" fill="#DCDCE6"/>
<path d="M82.4688 0H73.9375V17H82.4688V0Z" fill="#0F62FE"/>
<path d="M8.53071 11.4577L11.1256 10.8025L12.2098 14.1316L8.53071 11.4577ZM14.5026 7.15456H9.93481L8.53071 2.86914L7.12661 7.15456H2.55884L6.25571 9.81081L4.85161 14.0962L8.54848 11.44L10.8235 9.81081L14.5026 7.15456Z" fill="white"/>
<path d="M27.0151 11.4577L29.61 10.8025L30.6942 14.1316L27.0151 11.4577ZM32.987 7.15456H28.4192L27.0151 2.86914L25.611 7.15456H21.0432L24.7401 9.81081L23.336 14.0962L27.0329 11.44L29.3079 9.81081L32.987 7.15456Z" fill="white"/>
<path d="M45.4995 11.4577L48.0944 10.8025L49.1786 14.1316L45.4995 11.4577ZM51.4713 7.15456H46.9036L45.4995 2.86914L44.0954 7.15456H39.5276L43.2245 9.81081L41.8204 14.0962L45.5172 11.44L47.7922 9.81081L51.4713 7.15456Z" fill="white"/>
<path d="M63.9838 11.4577L66.5788 10.8025L67.6629 14.1316L63.9838 11.4577ZM69.9557 7.15456H65.3879L63.9838 2.86914L62.5797 7.15456H58.012L61.7088 9.81081L60.3047 14.0962L64.0016 11.44L66.2766 9.81081L69.9557 7.15456Z" fill="white"/>
<path d="M82.4682 11.4577L85.0631 10.8025L86.1473 14.1316L82.4682 11.4577ZM88.4401 7.15456H83.8723L82.4682 2.86914L81.0641 7.15456H76.4963L80.1932 9.81081L78.7891 14.0962L82.486 11.44L84.761 9.81081L88.4401 7.15456Z" fill="white"/>
</g>
<defs>
<clipPath id="clip0_76_7278">
<rect width="91" height="17" fill="white"/>
</clipPath>
</defs>
</svg>

<svg xmlns="http://www.w3.org/2000/svg" width="91" height="17" fill="none" viewBox="0 0 91 17"><g clip-path="url(#a)"><path fill="#0f62fe" d="M17.063 0H0v17h17.063zm18.484 0H18.484v17h17.063zm18.484 0H36.97v17h17.06zm18.485 0H55.453v17h17.063z"/><path fill="#dcdce6" d="M91 0h-8.531v17H91z"/><path fill="#0f62fe" d="M82.469 0h-8.531v17h8.53z"/><path fill="#fff" d="m8.53 11.458 2.596-.655 1.084 3.329zm5.973-4.303H9.935L8.53 2.869 7.127 7.155H2.559L6.256 9.81l-1.404 4.285 3.696-2.656 2.275-1.63zm12.512 4.303 2.595-.655 1.084 3.329zm5.972-4.303h-4.568l-1.404-4.286-1.404 4.286h-4.568L24.74 9.81l-1.404 4.285 3.697-2.656 2.275-1.63zM45.5 11.458l2.594-.655 1.085 3.329zm5.971-4.303h-4.567l-1.405-4.286-1.404 4.286h-4.567l3.697 2.656-1.405 4.285 3.697-2.656 2.275-1.63zm12.513 4.303 2.595-.655 1.084 3.329zm5.972-4.303h-4.568l-1.404-4.286-1.404 4.286h-4.568l3.697 2.656-1.404 4.285 3.697-2.656 2.275-1.63zm12.512 4.303 2.595-.655 1.084 3.329zm5.972-4.303h-4.568l-1.404-4.286-1.404 4.286h-4.568l3.697 2.656-1.404 4.285 3.697-2.656 2.275-1.63z"/></g><defs><clipPath id="a"><path fill="#fff" d="M0 0h91v17H0z"/></clipPath></defs></svg>
